X: 42077
T: Waltz Quadrille
R: waltz
M: 3/4
K: Fmajor
|:FG|"F"A2^G2A2|"Bb"B2A2B2|"F"c2f2A2|c4cd|"C7"c2G2A2|B3AB2|"F"d2c2F2|A4FG|
"F"A2^G2A2|"Bb"B2A2B2|"F"c2f2A2|c4cc|"C7"c2e3g|e2d2cc|c2d2e2|"F"[A4f4]:|
|:g2|"F"a6|"A7"g6|"Bb"f2e2d2|"F"c4cd|"C7"c2G2A2|B3AB2|"F"d2c2F2|A4c2|
"F"a6|"A7"g6|"Bb"f2e2d2|"F"c4cc|"C7"c2e3g|e2d2cc|c2d2e2|"F"[A4f4]:|

